public/assets/images/icons/black/move_down/assessment.svg

<svg width="16" height="16" xmlns="http://www.w3.org/2000/svg" viewBox="0 0 16 16" shape-rendering="geometricPrecision"><defs><mask id="a"><rect fill="#fff" width="100%" height="100%"/><path d="M14.934-.397l-2.039 2.036-2.037-2.036-2.472 2.47 4.511 4.51 4.507-4.51z"/></mask></defs><path fill="#cb1800" d="M12.895 3.052l-2.037-2.035L9.8 2.073l3.097 3.096 3.093-3.096-1.057-1.056z"/><g mask="url(#a)"><path d="M4.622 5.865H1.017V2.262h3.604v3.603h.001zM1.55 5.331h2.536V2.795H1.55v2.536zm3.072 4.472H1.017V6.199h3.604v3.604h.001zM1.55 9.268h2.536V6.73H1.55v2.538zm3.072 4.47H1.017v-3.604h3.604v3.604h.001zm-3.072-.534h2.536V10.67H1.55v2.534zM6.041 3.051h8.941v2.137H6.041zm0 3.892h8.941v2.135H6.041zm0 3.912h8.941v2.136H6.041z"/><path d="M5.248 6.887l-.627-.629-1.523 1.521-.797-.795-.626.625 1.424 1.425z"/></g></svg>

<svg width="16" height="16" xmlns="http://www.w3.org/2000/svg" viewBox="0 0 16 16" shape-rendering="geometricPrecision"><defs><mask id="a"><rect fill="#fff" width="100%" height="100%"/><path d="M14.934-.397l-2.04 2.036L10.86-.398l-2.472 2.47 4.51 4.51 4.508-4.51z"/></mask></defs><path fill="#cb1800" d="M12.895 3.052l-2.037-2.035L9.8 2.073l3.097 3.096 3.093-3.097-1.057-1.056"/><g mask="url(#a)"><path d="M4.622 5.865H1.017V2.262H4.62v3.603h.002zM1.55 5.33h2.536V2.796H1.55V5.33zM4.622 9.803H1.017V6.2H4.62v3.603h.002zM1.55 9.268h2.536V6.73H1.55v2.538zM4.622 13.738H1.017v-3.604H4.62v3.604h.002zm-3.072-.534h2.536V10.67H1.55v2.534zM6.04 3.05h8.942V5.19h-8.94zM6.04 6.943h8.942v2.135h-8.94zM6.04 10.855h8.942v2.136h-8.94z"/><path d="M5.248 6.887l-.627-.63L3.1 7.78 2.3 6.983l-.625.625L3.1 9.033"/></g></svg>
